X:1
L:1/8
M:none
K:Eb
V:1 treble
 V:1  z | z | z | z | z | z4 z2 z G | c/G/ G G/E/ D E/D/ E/D/ C F | E/=A/ A A E F/=B/ B B F | G/c/ c c | 
